src/img/advisory/digital-marketing.svg

<svg width="29" height="31" viewBox="0 0 29 31" fill="none" xmlns="http://www.w3.org/2000/svg">
<path d="M28.7291 15.7654L23.7269 10.7632C24.8083 9.2105 24.6583 7.05423 23.2745 5.67041C22.5219 4.91786 21.5213 4.50336 20.4571 4.50336C19.6312 4.50336 18.8442 4.75396 18.1811 5.21746L13.1794 0.215781C13.0142 0.050547 12.7779 -0.0219453 12.5485 0.0227031C12.3191 0.0671406 12.1268 0.222602 12.0353 0.437547L5.20931 16.4695L1.50574 20.1731C0.534726 21.1442 0 22.4353 0 23.8085C0 25.1818 0.534726 26.4728 1.50581 27.4438C2.47683 28.4149 3.7679 28.9496 5.14111 28.9496C6.51438 28.9496 7.80538 28.4149 8.7764 27.4438L9.37799 26.8422L13.3298 30.794C13.4672 30.9313 13.6471 31 13.827 31C14.0069 31 14.1869 30.9313 14.3242 30.794L17.025 28.0933C17.2995 27.8187 17.2995 27.3735 17.025 27.0988L13.3135 23.3873L28.5078 16.9095C28.7226 16.8179 28.878 16.6256 28.9223 16.3963C28.9666 16.1669 28.8943 15.9305 28.7291 15.7654ZM20.4571 5.90975C21.1458 5.90975 21.7932 6.17793 22.2802 6.66491C23.113 7.49769 23.2551 8.76303 22.7079 9.74424L19.2001 6.23643C19.58 6.02359 20.0097 5.90975 20.4571 5.90975ZM7.78197 26.4494C7.07653 27.1548 6.13863 27.5433 5.14104 27.5433C4.14344 27.5433 3.20554 27.1549 2.5001 26.4494C1.79473 25.7439 1.40625 24.8061 1.40625 23.8085C1.40625 22.8109 1.79473 21.873 2.50017 21.1676L5.80289 17.8648L5.90357 17.9655L11.0845 23.147L7.78197 26.4494ZM15.5334 27.596L13.8269 29.3024L10.3724 25.8478L12.0788 24.1414L15.5334 27.596ZM24.2452 17.1979C24.2326 17.1829 24.2196 17.1681 24.2056 17.154L15.2991 8.24764C15.0246 7.97314 14.5794 7.97314 14.3047 8.24764C14.0301 8.52221 14.0301 8.96743 14.3047 9.24207L22.8538 17.7912L12.242 22.3153L6.63574 16.709L12.9213 1.94652L26.9988 16.0239L24.2452 17.1979Z" fill="#19338B"/>
</svg>

<svg xmlns="http://www.w3.org/2000/svg" width="29" height="31" fill="none"><path fill="#19338B" d="M28.73 15.77l-5-5a3.99 3.99 0 00-5.55-5.55l-5-5a.7.7 0 00-1.14.22L5.2 16.47l-3.7 3.7a5.1 5.1 0 000 7.27 5.1 5.1 0 007.27 0l.6-.6 3.95 3.95a.7.7 0 001 0l2.7-2.7a.7.7 0 000-1l-3.72-3.7 15.2-6.48a.7.7 0 00.22-1.14zM20.46 5.9a2.58 2.58 0 012.25 3.83l-3.51-3.5c.38-.22.81-.33 1.26-.33zM7.78 26.45a3.71 3.71 0 01-5.28 0 3.71 3.71 0 010-5.28l3.3-3.3.1.1 5.18 5.18-3.3 3.3zm7.75 1.15l-1.7 1.7-3.46-3.45 1.7-1.7 3.46 3.45zm8.72-10.4a.71.71 0 00-.04-.05l-8.91-8.9a.7.7 0 00-1 1l8.55 8.54-10.6 4.53-5.61-5.61 6.28-14.76L27 16.02l-2.75 1.18z"/></svg>
